src/images/social/linkedin.svg

<svg width="54" height="51" viewBox="0 0 54 51" fill="none" xmlns="http://www.w3.org/2000/svg">
<path d="M11.7401 5.46994C11.7401 8.47211 9.32711 10.9047 6.34885 10.9047C3.37058 10.9047 0.957541 8.47211 0.957541 5.46994C0.957541 2.46994 3.37058 0.0351562 6.34885 0.0351562C9.32711 0.0351562 11.7401 2.46994 11.7401 5.46994ZM11.7836 15.2525H0.914062V50.0352H11.7836V15.2525ZM29.1358 15.2525H18.3358V50.0352H29.138V31.7765C29.138 21.6243 42.2445 20.7939 42.2445 31.7765V50.0352H53.088V28.0112C53.088 10.8808 33.6923 11.5047 29.1358 19.9373V15.2525Z" fill="#333333" fill-opacity="0.72"/>
</svg>

<svg width="54" height="51" fill="none" xmlns="http://www.w3.org/2000/svg"><path d="M11.74 5.47c0 3.002-2.413 5.435-5.391 5.435S.958 8.472.958 5.47c0-3 2.413-5.435 5.39-5.435 2.98 0 5.392 2.435 5.392 5.435zm.044 9.783H.914v34.782h10.87V15.253zm17.352 0h-10.8v34.782h10.802V31.777c0-10.153 13.107-10.983 13.107 0v18.258h10.843V28.011c0-17.13-19.396-16.506-23.952-8.074v-4.685z" fill="#333" fill-opacity=".72"/></svg>
